src/WeatherTwentyOne/Resources/Images/fluent_weather_squalls_20_filled.svg

<svg width="41" height="40" viewBox="0 0 41 40" fill="none" xmlns="http://www.w3.org/2000/svg">
<path d="M31.4803 16C32.8006 15.9963 34.0704 16.499 35.0206 17.4016C35.9708 18.3042 36.5266 19.5356 36.5702 20.8349C36.6138 22.1341 36.1417 23.399 35.2541 24.3614C34.3665 25.3237 33.1331 25.9079 31.8155 25.99L31.4803 26C31.4478 26 31.4133 26 31.3808 25.996L31.1431 26.014H29.636C29.8655 26.556 29.9894 27.15 29.9894 27.772C29.9967 28.3979 29.877 29.019 29.6372 29.5988C29.3974 30.1786 29.0424 30.7054 28.593 31.1482C28.1436 31.5911 27.6089 31.9411 27.0203 32.1777C26.4317 32.4143 25.8009 32.5327 25.1652 32.526C23.1278 32.526 21.6308 31.64 20.8386 30.176C20.6576 29.8402 20.6129 29.4493 20.7134 29.0823C20.8139 28.7153 21.0522 28.3995 21.3801 28.1989C21.708 27.9982 22.101 27.9276 22.4797 28.0013C22.8585 28.075 23.1947 28.2876 23.4203 28.596L23.6235 28.922C23.8997 29.31 24.3547 29.526 25.1672 29.526C25.4027 29.5326 25.6371 29.4918 25.856 29.4059C26.0748 29.3201 26.2735 29.191 26.4398 29.0267C26.6061 28.8624 26.7365 28.6663 26.823 28.4505C26.9094 28.2347 26.9501 28.0038 26.9425 27.772C26.9425 26.892 26.2072 26.142 25.2281 26.038L24.7914 26.014H5.58596C5.19998 26.0139 4.82842 25.8695 4.54638 25.61C4.26434 25.3506 4.09284 24.9954 4.06653 24.6162C4.04022 24.237 4.16107 23.8622 4.40465 23.5674C4.64823 23.2726 4.99639 23.0798 5.37877 23.028L5.58596 23.014H31.1431L31.2406 23.018L31.3605 23.004L31.718 22.986C32.0661 22.9449 32.3974 22.8157 32.6798 22.6112C32.9622 22.4066 33.186 22.1336 33.3295 21.8186C33.473 21.5036 33.5312 21.1575 33.4985 20.8138C33.4658 20.4701 33.3434 20.1406 33.143 19.8573C32.9427 19.574 32.6713 19.3466 32.3553 19.1972C32.0392 19.0478 31.6893 18.9815 31.3395 19.0047C30.9897 19.0279 30.6519 19.1399 30.3591 19.3297C30.0663 19.5196 29.8284 19.7808 29.6685 20.088L29.4856 20.502C29.3056 20.8385 29.0024 21.0952 28.6375 21.22C28.2725 21.3448 27.873 21.3284 27.5198 21.1741C27.1667 21.0198 26.8863 20.7392 26.7354 20.389C26.5844 20.0388 26.5742 19.6452 26.7069 19.288C27.0642 18.3242 27.7138 17.4918 28.5677 16.9037C29.4215 16.3156 30.4383 16.0001 31.4803 16V16ZM19.2928 19.99H5.58596C5.19998 19.9899 4.82842 19.8455 4.54638 19.586C4.26434 19.3266 4.09284 18.9714 4.06653 18.5922C4.04022 18.213 4.16107 17.8382 4.40465 17.5434C4.64823 17.2486 4.99639 17.0558 5.37877 17.004L5.58596 16.99H19.2949C20.0984 16.99 20.8838 16.7554 21.5519 16.3158C22.2199 15.8763 22.7406 15.2516 23.0481 14.5207C23.3556 13.7898 23.4361 12.9855 23.2793 12.2096C23.1226 11.4337 22.7356 10.721 22.1675 10.1615C21.5993 9.60213 20.8755 9.22117 20.0874 9.06683C19.2994 8.91249 18.4825 8.9917 17.7402 9.29445C16.9979 9.5972 16.3634 10.1099 15.917 10.7677C15.4706 11.4255 15.2324 12.1988 15.2324 12.99C15.2324 13.3878 15.0719 13.7693 14.7862 14.0506C14.5005 14.3319 14.113 14.49 13.7089 14.49C13.3049 14.49 12.9174 14.3319 12.6317 14.0506C12.346 13.7693 12.1855 13.3878 12.1855 12.99C12.1855 11.6425 12.5805 10.3237 13.323 9.1919C14.0655 8.06005 15.124 7.16327 16.3715 6.6092C17.6189 6.05513 19.0022 5.86732 20.3554 6.06832C21.7086 6.26932 22.9741 6.85058 24 7.74234C25.0259 8.63409 25.7686 9.79843 26.1389 11.0956C26.5093 12.3927 26.4916 13.7676 26.0878 15.055C25.6841 16.3425 24.9116 17.4879 23.863 18.3537C22.8144 19.2195 21.5344 19.7689 20.1764 19.936L19.9733 19.976L19.7641 19.99H5.58596H19.2949H19.2928Z" fill="url(#paint0_linear)"/>
<defs>
<linearGradient id="paint0_linear" x1="9.61452" y1="10.7876" x2="24.8245" y2="28.2555" gradientUnits="userSpaceOnUse">
<stop offset="0.10243" stop-color="#28C2D1"/>
<stop offset="0.925347" stop-color="#4931DE"/>
</linearGradient>
</defs>
</svg>

<svg width="41" height="40" fill="none" xmlns="http://www.w3.org/2000/svg">
    <path
        d="M31.48 16a5.12 5.12 0 013.54 1.402 4.965 4.965 0 011.55 3.433 4.955 4.955 0 01-1.316 3.526 5.11 5.11 0 01-3.438 1.629l-.336.01c-.032 0-.067 0-.1-.004l-.237.018h-1.507c.23.542.353 1.136.353 1.758a4.637 4.637 0 01-.352 1.827 4.695 4.695 0 01-1.044 1.55 4.78 4.78 0 01-1.573 1.029 4.839 4.839 0 01-1.855.348c-2.037 0-3.534-.886-4.326-2.35a1.48 1.48 0 01-.126-1.094c.1-.367.34-.683.667-.883a1.543 1.543 0 012.04.397l.203.326c.277.388.732.604 1.544.604a1.752 1.752 0 001.273-.5 1.699 1.699 0 00.502-1.254c0-.88-.735-1.63-1.714-1.734l-.437-.024H5.586c-.386 0-.758-.145-1.04-.404a1.484 1.484 0 01-.142-2.043 1.53 1.53 0 01.975-.539l.207-.014h25.557l.098.004.12-.014.357-.018c.348-.041.68-.17.962-.375.282-.204.506-.477.65-.792a1.972 1.972 0 00-.187-1.962c-.2-.283-.472-.51-.788-.66a2.06 2.06 0 00-1.996.133c-.293.19-.53.45-.69.758l-.183.414c-.18.337-.484.593-.849.718a1.546 1.546 0 01-1.117-.046 1.511 1.511 0 01-.785-.785 1.478 1.478 0 01-.028-1.101 5.014 5.014 0 011.86-2.384A5.137 5.137 0 0131.48 16zm-12.187 3.99H5.586c-.386 0-.758-.144-1.04-.404a1.484 1.484 0 01-.142-2.043 1.53 1.53 0 01.975-.539l.207-.014h13.709c.803 0 1.589-.235 2.257-.674a4.014 4.014 0 001.496-1.795c.308-.731.388-1.536.231-2.311a3.982 3.982 0 00-1.111-2.049 4.083 4.083 0 00-2.08-1.094 4.122 4.122 0 00-2.348.227 4.05 4.05 0 00-1.823 1.474 3.956 3.956 0 00-.685 2.222c0 .398-.16.78-.446 1.06a1.536 1.536 0 01-2.154 0 1.488 1.488 0 01-.447-1.06c0-1.348.396-2.666 1.138-3.798a7.079 7.079 0 013.049-2.583 7.21 7.21 0 013.983-.54A7.158 7.158 0 0124 7.741a6.986 6.986 0 012.139 3.354 6.895 6.895 0 01-.051 3.959 6.994 6.994 0 01-2.225 3.299 7.165 7.165 0 01-3.687 1.582l-.203.04-.209.014H5.586h13.709-.002z"
        fill="url(#prefix__paint0_linear)" />
    <defs>
        <linearGradient id="prefix__paint0_linear" x1="9.615" y1="10.788" x2="24.825" y2="28.256"
            gradientUnits="userSpaceOnUse">
            <stop offset=".102" stop-color="#28C2D1" />
            <stop offset=".925" stop-color="#4931DE" />
        </linearGradient>
    </defs>
</svg>
